!!!SOCIAL_FUNCTION:	war songs
!!!PDT:	1939
!!!OTL: No__108_Head_Hunter's_Song_of_Triumph.krn
!!!LANG: Non-Tone
!!!LING_GROUP: Wakashan
!!!REG: Pacific Northwest
**kern
*staff1
=1-
*clefF4
*k[f#]
*M2/4
4r
8r
16r
16d\
=2
4B\
8B\L
8A\J
=3
[2A\
=4
4A\]
12A\L
12G\
12A\J
=5||
*M3/4
2G\
4r
=6||
*M2/4
4B\
4B\
=7
4A\
8.A\L
16G\Jk
=8
12A\L
12G\
12E\J
4r
=9||
*M3/4
4A\
12A\L
12G\
12G\J
16A\LL
16G\
16.E\
32G\JJk
=10
2G\
4r
=11
[2A\
8.A\L]
16G\Jk
=12
12A\L
12G\
12G\J
[2G\
=13
2G\]
4r
==
*-
